X:591
T:Polska från Lappland
T:FinnPåls Polska
O:Åsele, Lappland
R:Polska
S:Efter FinnPål
Z:Jonas Brunskog
N:Detta är FinnPåls Polska, återfinns bland Lapplandslåtarna, Åsele (i en mer korrekt version).
M:3/4
L:1/8
K:Gm
D|:dd cc BB|A/B/A/F/ G3 D|G>A Bc dg|dc d4|
dd ff dd|cc ee d2|BB dd BB|A/B/A/F/ G3 D:|
|:G>A Bc/B/ AG|F/G/A/F/ G3D|G>A Bc dg|dc d4|
dd ff dd|cc ee d2|BB dd BB|[1 A/B/A/F/ G3 D:|[2 A/B/A/F/ G4|]
(:musicend:)

[[!Ackord]]

(:music:)
